icons/svg/barrier_colored/military_checkpoint.svg

<?xml version="1.0" encoding="UTF-8" standalone="no"?>
<!-- Created with Inkscape (http://www.inkscape.org/) -->

<svg
   xmlns:dc="http://purl.org/dc/elements/1.1/"
   xmlns:cc="http://creativecommons.org/ns#"
   xmlns:rdf="http://www.w3.org/1999/02/22-rdf-syntax-ns#"
   xmlns:svg="http://www.w3.org/2000/svg"
   xmlns="http://www.w3.org/2000/svg"
   xmlns:sodipodi="http://sodipodi.sourceforge.net/DTD/sodipodi-0.dtd"
   xmlns:inkscape="http://www.inkscape.org/namespaces/inkscape"
   version="1.0"
   width="580"
   height="580"
   id="svg2"
   sodipodi:version="0.32"
   inkscape:version="0.91 r"
   sodipodi:docname="military_checkpoint.svg"
   inkscape:output_extension="org.inkscape.output.svg.inkscape">
  <defs
     id="defs22">
    <inkscape:perspective
       sodipodi:type="inkscape:persp3d"
       inkscape:vp_x="0 : 290 : 1"
       inkscape:vp_y="0 : 1000 : 0"
       inkscape:vp_z="580 : 290 : 1"
       inkscape:persp3d-origin="290 : 193.33333 : 1"
       id="perspective24" />
    <marker
       viewBox="0 0 10 10"
       refY="5"
       refX="10"
       orient="auto"
       markerWidth="4"
       markerUnits="strokeWidth"
       markerHeight="3"
       id="ArrowStart">
      <path
         id="path3568"
         d="M 10 0 L 0 5 L 10 10 z" />
    </marker>
    <marker
       viewBox="0 0 10 10"
       refY="5"
       refX="0"
       orient="auto"
       markerWidth="4"
       markerUnits="strokeWidth"
       markerHeight="3"
       id="ArrowEnd">
      <path
         id="path3565"
         d="M 0 0 L 10 5 L 0 10 z" />
    </marker>
    <inkscape:perspective
       id="perspective2683"
       inkscape:persp3d-origin="306.082 : 204.39034 : 1"
       inkscape:vp_z="612.164 : 306.58551 : 1"
       inkscape:vp_y="0 : 1000 : 0"
       inkscape:vp_x="0 : 306.58551 : 1"
       sodipodi:type="inkscape:persp3d" />
    <marker
       viewBox="0 0 10 10"
       refY="5"
       refX="10"
       orient="auto"
       markerWidth="4"
       markerUnits="strokeWidth"
       markerHeight="3"
       id="marker2959">
      <path
         id="path2626"
         d="M 10 0 L 0 5 L 10 10 z" />
    </marker>
    <marker
       viewBox="0 0 10 10"
       refY="5"
       refX="0"
       orient="auto"
       markerWidth="4"
       markerUnits="strokeWidth"
       markerHeight="3"
       id="marker2956">
      <path
         id="path2623"
         d="M 0 0 L 10 5 L 0 10 z" />
    </marker>
    <inkscape:perspective
       id="perspective2953"
       inkscape:persp3d-origin="306.082 : 204.39034 : 1"
       inkscape:vp_z="612.164 : 306.58551 : 1"
       inkscape:vp_y="0 : 1000 : 0"
       inkscape:vp_x="0 : 306.58551 : 1"
       sodipodi:type="inkscape:persp3d" />
    <marker
       viewBox="0 0 10 10"
       refY="5"
       refX="10"
       orient="auto"
       markerWidth="4"
       markerUnits="strokeWidth"
       markerHeight="3"
       id="marker3077">
      <path
         id="path3298"
         d="M 10 0 L 0 5 L 10 10 z" />
    </marker>
    <marker
       viewBox="0 0 10 10"
       refY="5"
       refX="0"
       orient="auto"
       markerWidth="4"
       markerUnits="strokeWidth"
       markerHeight="3"
       id="marker3074">
      <path
         id="path3295"
         d="M 0 0 L 10 5 L 0 10 z" />
    </marker>
    <inkscape:perspective
       id="perspective3071"
       inkscape:persp3d-origin="180.936 : 163.92867 : 1"
       inkscape:vp_z="361.87201 : 245.89301 : 1"
       inkscape:vp_y="0 : 1000 : 0"
       inkscape:vp_x="0 : 245.89301 : 1"
       sodipodi:type="inkscape:persp3d" />
    <inkscape:perspective
       id="perspective3724"
       inkscape:persp3d-origin="0.5 : 0.33333333 : 1"
       inkscape:vp_z="1 : 0.5 : 1"
       inkscape:vp_y="0 : 1000 : 0"
       inkscape:vp_x="0 : 0.5 : 1"
       sodipodi:type="inkscape:persp3d" />
    <inkscape:perspective
       id="perspective4592"
       inkscape:persp3d-origin="0.5 : 0.33333333 : 1"
       inkscape:vp_z="1 : 0.5 : 1"
       inkscape:vp_y="0 : 1000 : 0"
       inkscape:vp_x="0 : 0.5 : 1"
       sodipodi:type="inkscape:persp3d" />
    <inkscape:perspective
       id="perspective3979"
       inkscape:persp3d-origin="0.5 : 0.33333333 : 1"
       inkscape:vp_z="1 : 0.5 : 1"
       inkscape:vp_y="0 : 1000 : 0"
       inkscape:vp_x="0 : 0.5 : 1"
       sodipodi:type="inkscape:persp3d" />
  </defs>
  <metadata
     id="metadata10">
    <rdf:RDF>
      <cc:Work
         rdf:about="">
        <dc:format>image/svg+xml</dc:format>
        <dc:type
           rdf:resource="http://purl.org/dc/dcmitype/StillImage" />
        <cc:license
           rdf:resource="http://web.resource.org/cc/PublicDomain" />
        <dc:language>en</dc:language>
        <dc:title />
      </cc:Work>
    </rdf:RDF>
  </metadata>
  <sodipodi:namedview
     inkscape:window-height="1006"
     inkscape:window-width="1920"
     inkscape:pageshadow="2"
     inkscape:pageopacity="0.0"
     guidetolerance="10.0"
     gridtolerance="10.0"
     objecttolerance="10.0"
     borderopacity="1.0"
     bordercolor="#666666"
     pagecolor="#ffffff"
     id="base"
     showgrid="false"
     inkscape:zoom="0.1767767"
     inkscape:cx="-214.71506"
     inkscape:cy="1066.2195"
     inkscape:window-x="1680"
     inkscape:window-y="0"
     inkscape:current-layer="svg2"
     inkscape:window-maximized="1" />
  <g
     id="g1327">
    <path
       d="M 66.275,1.768 C 24.94,1.768 1.704,23.139 1.704,66.804 L 1.704,516.927 C 1.704,557.771 22.598,579.156 63.896,579.156 L 515.92,579.156 C 557.227,579.156 578.149,558.84 578.149,516.927 L 578.149,66.804 C 578.149,24.203 557.227,1.768 514.627,1.768 C 514.624,1.768 66.133,1.625 66.275,1.768 z"
       style="fill:#111111;stroke:#eeeeee;stroke-width:3.40799999"
       id="path1329" />
  </g>
  <g
     id="g2319"
     transform="translate(879.29125,36.805119)">
    <path
       id="path2323"
       style="fill:#ffffff;stroke:none"
       d="" />
  </g>
  <g
     id="g2325"
     transform="translate(879.29125,36.805119)">
    <path
       id="path2329"
       style="fill:#ffffff;stroke:none"
       d="" />
  </g>
  <g
     id="g2855"
     transform="translate(-12.234636,20)">
    <path
       id="path3732"
       d="M 121.78907,156.82856 491.31698,74.448623"
       style="fill:none;stroke:#ffffff;stroke-width:54.68502426;stroke-linecap:round;stroke-linejoin:miter;stroke-miterlimit:4;stroke-dasharray:none;stroke-opacity:1"
       sodipodi:nodetypes="cc"
       inkscape:connector-curvature="0" />
    <path
       sodipodi:nodetypes="csccsccsccscc"
       id="rect3827"
       d="m 477.31276,182.66324 c -3.72291,-0.002 -7.42352,1.53023 -10.05602,4.16273 -2.6325,2.6325 -4.16438,6.33311 -4.16273,10.05602 l 0,170.53125 c -0.002,3.72291 1.53023,7.42352 4.16273,10.05602 2.6325,2.6325 6.33311,4.16438 10.05602,4.16273 l 51.84375,0 c 3.72291,0.002 7.42352,-1.53023 10.05602,-4.16273 2.6325,-2.6325 4.16438,-6.33311 4.16273,-10.05602 l 0,-170.53125 c 0.002,-3.72291 -1.53023,-7.42352 -4.16273,-10.05602 -2.6325,-2.6325 -6.33311,-4.16438 -10.05602,-4.16273 l -51.84375,0 z"
       style="color:#000000;font-style:normal;font-variant:normal;font-weight:normal;font-stretch:normal;font-size:medium;line-height:normal;font-family:'Bitstream Vera Sans';-inkscape-font-specification:'Bitstream Vera Sans';text-indent:0;text-align:start;text-decoration:none;text-decoration-line:none;letter-spacing:normal;word-spacing:normal;text-transform:none;direction:ltr;block-progression:tb;writing-mode:lr-tb;text-anchor:start;display:inline;overflow:visible;visibility:visible;opacity:0.75;fill:#ffffff;fill-opacity:1;fill-rule:nonzero;stroke:none;stroke-width:28.42206573;marker:none;enable-background:accumulate"
       inkscape:connector-curvature="0" />
    <path
       id="rect3925"
       d="m 78.81276,39.663243 c -4.63871,1.7e-4 -9.25119,1.90744 -12.53125,5.1875 -3.28007,3.28007 -5.18733,7.89254 -5.1875,12.53125 l 0,306.531247 c 1.7e-4,4.63871 1.90743,9.25118 5.1875,12.53125 3.28006,3.28006 7.89254,5.18733 12.53125,5.1875 l 44.84375,0 c 4.63871,-1.7e-4 9.25118,-1.90744 12.53125,-5.1875 3.28006,-3.28007 5.18733,-7.89254 5.1875,-12.53125 l 0,-154.46875 c -22.41541,6.88237 -49.3011,0.78606 -63.78125,-18.25 -21.96066,-26.26887 -10.75534,-72.68933 21.625,-84.9375 14.04957,-3.25379 28.10405,-6.477937 42.15625,-9.718747 l 0,-39.15625 c -1.7e-4,-4.63871 -1.90744,-9.25118 -5.1875,-12.53125 -3.28007,-3.28006 -7.89254,-5.18733 -12.53125,-5.1875 l -44.84375,0 z"
       style="color:#000000;font-style:normal;font-variant:normal;font-weight:normal;font-stretch:normal;font-size:medium;line-height:normal;font-family:'Bitstream Vera Sans';-inkscape-font-specification:'Bitstream Vera Sans';text-indent:0;text-align:start;text-decoration:none;text-decoration-line:none;letter-spacing:normal;word-spacing:normal;text-transform:none;direction:ltr;block-progression:tb;writing-mode:lr-tb;text-anchor:start;display:inline;overflow:visible;visibility:visible;opacity:0.75;fill:#ffffff;fill-opacity:1;fill-rule:nonzero;stroke:none;stroke-width:35.4352684;marker:none;enable-background:accumulate"
       inkscape:connector-curvature="0" />
  </g>
  <path
     style="fill:#ffffff;fill-opacity:1;stroke:none;stroke-opacity:1"
     d="m 291.19783,533.70205 42.97021,-0.54675 -0.55772,-8.22305 c -0.44406,-6.54706 -1.36658,-9.04192 -4.52632,-12.24085 -3.25555,-3.29586 -3.98805,-5.44595 -4.07684,-11.96609 -0.0723,-5.30916 0.55731,-7.94828 1.89621,-7.94827 5.98557,0 6.60364,-5.60782 6.87623,-62.38887 l 0.27419,-57.11465 -9.01134,-10.28631 -9.01135,-10.28631 -26.50669,-0.0313 -26.50671,-0.0313 -8.47026,9.71677 -8.47024,9.71678 -0.12261,56.94076 -0.12263,56.94076 4.62771,4.28528 c 4.05782,3.75756 4.61579,5.15917 4.53108,11.38149 -0.0823,6.04254 -0.71356,7.60633 -4.25149,10.5316 -3.53036,2.91899 -4.2219,4.61926 -4.60086,11.31209 -0.24531,4.3322 0.12443,8.53111 0.8216,9.33089 0.69715,0.79982 20.60419,1.20811 44.2378,0.90741 z m -1.18478,-212.50673 25.97274,-0.0331 0,-14.9019 c 0,-13.87159 -0.75574,-17.27012 -10.93086,-49.15569 -8.65294,-27.11557 -11.52451,-34.46001 -13.77965,-35.24329 -1.56685,-0.5442 -3.58876,-0.14065 -4.49312,0.89681 -0.90437,1.03745 -6.4141,16.80312 -12.24385,35.0348 -9.92374,31.03507 -10.5963,34.11405 -10.54876,48.292 l 0.0507,15.14347 z"
     id="path6263"
     inkscape:connector-curvature="0"
     sodipodi:nodetypes="ccssssscccccccccsssssccsssssssccs" />
</svg>

<svg width="580" height="580" viewBox="0 0 580 580" fill="none" xmlns="http://www.w3.org/2000/svg">
<g clip-path="url(#clip0)">
<path d="M66.275 1.76802C24.94 1.76802 1.704 23.139 1.704 66.804V516.927C1.704 557.771 22.598 579.156 63.896 579.156H515.92C557.227 579.156 578.149 558.84 578.149 516.927V66.804C578.149 24.203 557.227 1.76802 514.627 1.76802C514.624 1.76802 66.133 1.62502 66.275 1.76802Z" fill="#111111" stroke="#EEEEEE" stroke-width="3.408"/>
<path d="M109.554 176.829L479.082 94.4486" stroke="white" stroke-width="54.685" stroke-linecap="round"/>
<path opacity="0.75" d="M465.078 202.663C461.355 202.661 457.655 204.193 455.022 206.826C452.39 209.458 450.858 213.159 450.859 216.882V387.413C450.857 391.136 452.39 394.837 455.022 397.469C457.655 400.102 461.355 401.634 465.078 401.632H516.922C520.645 401.634 524.345 400.102 526.978 397.469C529.61 394.837 531.142 391.136 531.141 387.413V216.882C531.143 213.159 529.61 209.458 526.978 206.826C524.345 204.193 520.645 202.662 516.922 202.663H465.078V202.663Z" fill="white"/>
<path opacity="0.75" d="M66.5781 59.6632C61.9394 59.6634 57.3269 61.5706 54.0469 64.8507C50.7668 68.1308 48.8595 72.7432 48.8594 77.382V383.913C48.8595 388.552 50.7668 393.164 54.0469 396.444C57.3269 399.725 61.9394 401.632 66.5781 401.632H111.422C116.061 401.632 120.673 399.725 123.953 396.444C127.233 393.164 129.14 388.552 129.141 383.913V229.444C106.725 236.327 79.8395 230.231 65.3594 211.194C43.3987 184.926 54.604 138.505 86.9844 126.257C101.034 123.003 115.088 119.779 129.141 116.538V77.382C129.14 72.7432 127.233 68.1308 123.953 64.8507C120.673 61.5706 116.061 59.6634 111.422 59.6632H66.5781V59.6632Z" fill="white"/>
<path d="M291.198 533.702L334.168 533.155L333.61 524.932C333.166 518.385 332.244 515.89 329.084 512.691C325.828 509.396 325.096 507.246 325.007 500.725C324.935 495.416 325.564 492.777 326.903 492.777C332.889 492.777 333.507 487.169 333.78 430.388L334.054 373.274L325.042 362.987L316.031 352.701L289.524 352.67L263.018 352.638L254.547 362.355L246.077 372.072L245.955 429.013L245.832 485.953L250.46 490.239C254.517 493.996 255.075 495.398 254.991 501.62C254.908 507.663 254.277 509.227 250.739 512.152C247.209 515.071 246.517 516.771 246.138 523.464C245.893 527.796 246.263 531.995 246.96 532.795C247.657 533.595 267.564 534.003 291.198 533.702V533.702ZM290.013 321.195L315.986 321.162V306.26C315.986 292.389 315.23 288.99 305.055 257.105C296.402 229.989 293.53 222.645 291.275 221.861C289.708 221.317 287.687 221.721 286.782 222.758C285.878 223.796 280.368 239.561 274.538 257.793C264.615 288.828 263.942 291.907 263.99 306.085L264.04 321.228L290.013 321.195Z" fill="white"/>
</g>
<defs>
<clipPath id="clip0">
<path d="M0 0H580V580H0V0Z" fill="white"/>
</clipPath>
</defs>
</svg>
